public/img/Hero/Infinix_VR.svg

<svg width="503" height="80" viewBox="0 0 503 80" fill="none" xmlns="http://www.w3.org/2000/svg">
<rect width="502.094" height="79" transform="translate(0.09375 0.209167)"/>
<path d="M64.4689 15.6549C57.5701 15.6549 51.348 18.6335 46.9938 23.383L54.7873 35.2566C56.4651 31.5461 60.173 28.9615 64.4689 28.9615C70.3387 28.9615 75.1136 33.7826 75.1136 39.7092C75.1136 45.6357 70.3387 50.4568 64.4689 50.4568C60.4999 50.4568 57.2178 48.141 55.2054 44.9934C44.9536 28.9615 46.4996 31.216 43.182 25.9854C42.376 24.7136 41.4079 23.3958 41.1646 23.1373C36.823 18.5312 30.6973 15.6549 23.9176 15.6549C10.7815 15.6549 0.09375 26.4461 0.09375 39.7092C0.09375 52.9723 10.7815 63.7634 23.9176 63.7634C30.8519 63.7634 37.1018 60.7567 41.4586 55.9663L33.7183 43.9033C32.0963 47.752 28.3149 50.4568 23.9176 50.4568C18.0478 50.4568 13.2729 45.6357 13.2729 39.7092C13.2729 33.7826 18.0478 28.9615 23.9176 28.9615C27.8333 28.9615 31.1535 31.175 33.1101 34.2995C41.1519 47.1302 41.8996 48.1256 45.3794 53.5813C46.2766 54.9862 47.7263 56.8158 48.2002 57.2637C52.4606 61.2915 58.1834 63.7634 64.4689 63.7634C77.6049 63.7634 88.2927 52.9723 88.2927 39.7092C88.2927 26.4461 77.6049 15.6549 64.4689 15.6549Z" fill="#86D0F8"/>
<path d="M110.829 65.2092V18.2747H119.397V65.2092H110.829ZM127.731 65.2092V30.9376H135.48V37.6785L134.85 36.4815C135.648 34.4235 136.95 32.8695 138.756 31.8196C140.604 30.7276 142.746 30.1816 145.182 30.1816C147.702 30.1816 149.928 30.7276 151.86 31.8196C153.834 32.9115 155.367 34.4445 156.459 36.4185C157.551 38.3505 158.097 40.5975 158.097 43.1594V65.2092H149.844V45.1124C149.844 43.6004 149.55 42.2984 148.962 41.2064C148.374 40.1145 147.555 39.2745 146.505 38.6865C145.497 38.0565 144.3 37.7415 142.914 37.7415C141.57 37.7415 140.373 38.0565 139.323 38.6865C138.273 39.2745 137.454 40.1145 136.866 41.2064C136.278 42.2984 135.984 43.6004 135.984 45.1124V65.2092H127.731ZM169.045 65.2092V38.3085H162.997V30.9376H169.045V29.8036C169.045 27.1996 169.57 24.9946 170.62 23.1887C171.712 21.3407 173.224 19.9337 175.156 18.9677C177.088 18.0017 179.377 17.5187 182.023 17.5187C182.527 17.5187 183.072 17.5607 183.66 17.6447C184.29 17.6867 184.815 17.7497 185.235 17.8337V24.9526C184.815 24.8686 184.416 24.8266 184.038 24.8266C183.702 24.7846 183.387 24.7636 183.093 24.7636C181.246 24.7636 179.818 25.1836 178.81 26.0236C177.802 26.8216 177.298 28.0816 177.298 29.8036V30.9376H192.291V38.3085H177.298V65.2092H169.045ZM189.204 65.2092V30.9376H197.52V65.2092H189.204ZM204.389 65.2092V30.9376H212.138V37.6785L211.508 36.4815C212.306 34.4235 213.608 32.8695 215.414 31.8196C217.262 30.7276 219.404 30.1816 221.84 30.1816C224.359 30.1816 226.585 30.7276 228.517 31.8196C230.491 32.9115 232.024 34.4445 233.116 36.4185C234.208 38.3505 234.754 40.5975 234.754 43.1594V65.2092H226.501V45.1124C226.501 43.6004 226.207 42.2984 225.619 41.2064C225.031 40.1145 224.212 39.2745 223.163 38.6865C222.155 38.0565 220.958 37.7415 219.572 37.7415C218.228 37.7415 217.031 38.0565 215.981 38.6865C214.931 39.2745 214.112 40.1145 213.524 41.2064C212.936 42.2984 212.642 43.6004 212.642 45.1124V65.2092H204.389ZM241.733 65.2092V30.9376H249.986V65.2092H241.733ZM241.733 27.0946V18.2747H249.986V27.0946H241.733ZM254.519 65.2092L266.489 48.0104L254.456 30.9376H264.158L273.545 44.7974H269.198L278.585 30.9376H288.224L276.254 48.0104L288.161 65.2092H278.522L269.261 51.4123H273.482L264.221 65.2092H254.519Z" fill="white"/>
<path d="M307.293 16.1027L307.293 64.2113" stroke="white" stroke-width="0.916353"/>
<path d="M331.604 35.2092L325.441 18.1421H327.847L333.07 33.1474H332.589L337.812 18.1421H340.218L334.078 35.2092H331.604ZM342.371 35.2092V18.1421H348.396C349.526 18.1421 350.519 18.3559 351.374 18.7835C352.229 19.2112 352.894 19.8221 353.367 20.6162C353.856 21.4104 354.1 22.342 354.1 23.4111C354.1 24.6177 353.795 25.6409 353.184 26.4809C352.573 27.3209 351.748 27.9242 350.71 28.2907L354.673 35.2092H352.061L347.892 27.8096L349.381 28.6802H344.616V35.2092H342.371ZM344.616 26.6184H348.465C349.137 26.6184 349.725 26.4885 350.229 26.2289C350.733 25.9693 351.122 25.5951 351.397 25.1064C351.687 24.6177 351.832 24.0526 351.832 23.4111C351.832 22.7544 351.687 22.1893 351.397 21.7159C351.122 21.2271 350.733 20.853 350.229 20.5933C349.725 20.3337 349.137 20.2039 348.465 20.2039H344.616V26.6184ZM359.445 37.9582L367.142 19.0814H369.547L361.85 37.9582H359.445ZM373.921 35.2092L380.038 18.1421H382.695L388.812 35.2092H386.407L385.009 31.2001H377.724L376.327 35.2092H373.921ZM378.434 29.1383H384.299L381.046 19.7686H381.687L378.434 29.1383ZM390.963 35.2092V18.1421H396.988C398.118 18.1421 399.111 18.3559 399.966 18.7835C400.821 19.2112 401.485 19.8221 401.959 20.6162C402.448 21.4104 402.692 22.342 402.692 23.4111C402.692 24.6177 402.387 25.6409 401.776 26.4809C401.165 27.3209 400.34 27.9242 399.301 28.2907L403.265 35.2092H400.653L396.484 27.8096L397.973 28.6802H393.208V35.2092H390.963ZM393.208 26.6184H397.056C397.728 26.6184 398.316 26.4885 398.82 26.2289C399.324 25.9693 399.714 25.5951 399.989 25.1064C400.279 24.6177 400.424 24.0526 400.424 23.4111C400.424 22.7544 400.279 22.1893 399.989 21.7159C399.714 21.2271 399.324 20.853 398.82 20.5933C398.316 20.3337 397.728 20.2039 397.056 20.2039H393.208V26.6184ZM327.091 64.2092V47.1421H332.681C334.406 47.1421 335.911 47.4934 337.194 48.1959C338.477 48.8984 339.469 49.8912 340.172 51.174C340.874 52.4417 341.226 53.9384 341.226 55.6642C341.226 57.3747 340.874 58.8714 340.172 60.1543C339.469 61.4372 338.477 62.4376 337.194 63.1554C335.911 63.8579 334.406 64.2092 332.681 64.2092H327.091ZM329.336 62.1474H332.704C333.971 62.1474 335.063 61.8801 335.98 61.3456C336.911 60.811 337.629 60.0627 338.133 59.1005C338.637 58.1231 338.889 56.9776 338.889 55.6642C338.889 54.3355 338.629 53.19 338.11 52.2279C337.606 51.2657 336.888 50.525 335.957 50.0057C335.04 49.4712 333.956 49.2039 332.704 49.2039H329.336V62.1474ZM344.071 64.2092V47.1421H355.182V49.2039H346.316V54.6104H354.724V56.6722H346.316V62.1474H355.182V64.2092H344.071ZM362.477 64.2092L356.315 47.1421H358.72L363.943 62.1474H363.462L368.685 47.1421H371.091L364.951 64.2092H362.477ZM373.244 64.2092V47.1421H384.355V49.2039H375.489V54.6104H383.897V56.6722H375.489V62.1474H384.355V64.2092H373.244ZM387.137 64.2092V47.1421H389.382V62.1474H396.873V64.2092H387.137ZM407.105 64.4841C405.898 64.4841 404.768 64.2703 403.714 63.8426C402.661 63.3997 401.737 62.7812 400.942 61.987C400.164 61.1928 399.553 60.2612 399.11 59.1921C398.667 58.1078 398.445 56.9318 398.445 55.6642C398.445 54.3813 398.667 53.2053 399.11 52.1362C399.553 51.0671 400.164 50.1355 400.942 49.3413C401.737 48.5472 402.653 47.9363 403.692 47.5086C404.745 47.081 405.883 46.8672 407.105 46.8672C408.327 46.8672 409.457 47.0886 410.495 47.5315C411.549 47.9592 412.466 48.5701 413.245 49.3642C414.039 50.1431 414.657 51.0671 415.1 52.1362C415.558 53.2053 415.787 54.3813 415.787 55.6642C415.787 56.9318 415.558 58.1078 415.1 59.1921C414.657 60.2612 414.039 61.1928 413.245 61.987C412.466 62.7812 411.549 63.3997 410.495 63.8426C409.457 64.2703 408.327 64.4841 407.105 64.4841ZM407.105 62.3994C408.052 62.3994 408.915 62.2314 409.694 61.8954C410.473 61.5441 411.145 61.063 411.71 60.4521C412.29 59.8259 412.733 59.1081 413.038 58.2987C413.359 57.474 413.519 56.5958 413.519 55.6642C413.519 54.7325 413.359 53.862 413.038 53.0526C412.733 52.2431 412.29 51.533 411.71 50.922C411.145 50.2959 410.473 49.8148 409.694 49.4788C408.915 49.1275 408.052 48.9519 407.105 48.9519C406.173 48.9519 405.318 49.1275 404.539 49.4788C403.76 49.8148 403.081 50.2959 402.5 50.922C401.935 51.533 401.492 52.2431 401.172 53.0526C400.851 53.862 400.69 54.7325 400.69 55.6642C400.69 56.5958 400.851 57.474 401.172 58.2987C401.492 59.1081 401.935 59.8259 402.5 60.4521C403.081 61.063 403.76 61.5441 404.539 61.8954C405.318 62.2314 406.173 62.3994 407.105 62.3994ZM419.062 64.2092V47.1421H425.087C426.217 47.1421 427.21 47.3559 428.065 47.7835C428.92 48.2112 429.585 48.8221 430.058 49.6162C430.547 50.4104 430.791 51.342 430.791 52.4111C430.791 53.4802 430.547 54.4118 430.058 55.206C429.585 55.9849 428.92 56.5958 428.065 57.0387C427.225 57.4663 426.232 57.6802 425.087 57.6802H421.307V64.2092H419.062ZM421.307 55.6184H425.156C425.843 55.6184 426.438 55.4885 426.942 55.2289C427.446 54.9693 427.836 54.5951 428.111 54.1064C428.386 53.6177 428.523 53.0526 428.523 52.4111C428.523 51.7544 428.386 51.1893 428.111 50.7159C427.836 50.2271 427.446 49.853 426.942 49.5933C426.438 49.3337 425.843 49.2039 425.156 49.2039H421.307V55.6184ZM433.827 64.2092V47.1421H435.889L442.281 56.2369H441.227L447.573 47.1421H449.634V64.2092H447.366V49.9828L448.168 50.2348L441.822 59.1692H441.639L435.362 50.2348L436.072 49.9828V64.2092H433.827ZM453.425 64.2092V47.1421H464.536V49.2039H455.67V54.6104H464.078V56.6722H455.67V62.1474H464.536V64.2092H453.425ZM467.318 64.2092V47.1421H469.196L479.001 60.9332L478.154 61.0248V47.1421H480.422V64.2092H478.543L468.784 50.3264L469.563 50.2348V64.2092H467.318ZM487.209 64.2092V49.2039H482.582V47.1421H494.036V49.2039H489.477V64.2092H487.209Z" fill="white"/>
</svg>

<svg width="503" height="80" fill="none" xmlns="http://www.w3.org/2000/svg"><path d="M.094.21h502.094v79H.094z"/><path d="M64.469 15.655c-6.899 0-13.121 2.979-17.475 7.728l7.793 11.874c1.678-3.71 5.386-6.295 9.682-6.295 5.87 0 10.645 4.82 10.645 10.747s-4.775 10.748-10.645 10.748c-3.97 0-7.251-2.316-9.264-5.464C44.954 28.961 46.5 31.216 43.182 25.985c-.806-1.271-1.774-2.59-2.017-2.848-4.342-4.606-10.468-7.482-17.247-7.482C10.782 15.655.094 26.446.094 39.709c0 13.263 10.688 24.054 23.824 24.054 6.934 0 13.184-3.006 17.54-7.797l-7.74-12.063c-1.622 3.849-5.403 6.554-9.8 6.554-5.87 0-10.645-4.821-10.645-10.748 0-5.926 4.775-10.748 10.645-10.748 3.915 0 7.236 2.214 9.192 5.339 8.042 12.83 8.79 13.826 12.27 19.281.897 1.405 2.346 3.235 2.82 3.683 4.26 4.027 9.983 6.5 16.269 6.5 13.136 0 23.824-10.792 23.824-24.055S77.605 15.655 64.469 15.655Z" fill="#86D0F8"/><path d="M110.829 65.21V18.274h8.568v46.934h-8.568Zm16.902 0V30.937h7.749v6.74l-.63-1.197c.798-2.058 2.1-3.611 3.906-4.661 1.848-1.092 3.99-1.638 6.426-1.638 2.52 0 4.746.546 6.678 1.638a11.538 11.538 0 0 1 4.599 4.599c1.092 1.931 1.638 4.178 1.638 6.74v22.05h-8.253V45.112c0-1.512-.294-2.814-.882-3.906-.588-1.092-1.407-1.931-2.457-2.52-1.008-.63-2.205-.944-3.591-.944-1.344 0-2.541.315-3.591.945-1.05.588-1.869 1.428-2.457 2.52-.588 1.091-.882 2.393-.882 3.905V65.21h-8.253Zm41.314 0V38.308h-6.048v-7.371h6.048v-1.134c0-2.604.525-4.81 1.575-6.615a10.736 10.736 0 0 1 4.536-4.221c1.932-.966 4.221-1.45 6.867-1.45.504 0 1.049.043 1.637.127.63.042 1.155.105 1.575.189v7.119a6.11 6.11 0 0 0-1.197-.126 7.642 7.642 0 0 0-.945-.063c-1.847 0-3.275.42-4.283 1.26-1.008.798-1.512 2.058-1.512 3.78v1.134h14.993v7.37h-14.993V65.21h-8.253Zm20.159 0V30.937h8.316v34.271h-8.316Zm15.185 0V30.937h7.749v6.74l-.63-1.197c.798-2.058 2.1-3.611 3.906-4.661 1.848-1.092 3.99-1.638 6.426-1.638 2.519 0 4.745.546 6.677 1.638a11.538 11.538 0 0 1 4.599 4.599c1.092 1.931 1.638 4.178 1.638 6.74v22.05h-8.253V45.112c0-1.512-.294-2.814-.882-3.906-.588-1.092-1.407-1.931-2.456-2.52-1.008-.63-2.205-.944-3.591-.944-1.344 0-2.541.315-3.591.945-1.05.588-1.869 1.428-2.457 2.52-.588 1.091-.882 2.393-.882 3.905V65.21h-8.253Zm37.344 0V30.937h8.253v34.271h-8.253Zm0-38.115v-8.82h8.253v8.82h-8.253Zm12.786 38.114 11.97-17.199-12.033-17.072h9.702l9.387 13.86h-4.347l9.387-13.86h9.639l-11.97 17.072 11.907 17.2h-9.639l-9.261-13.798h4.221l-9.261 13.797h-9.702Z" fill="#fff"/><path d="M307.293 16.103V64.21" stroke="#fff" stroke-width=".916"/><path d="m331.604 35.21-6.163-17.068h2.406l5.223 15.005h-.481l5.223-15.005h2.406l-6.14 17.067h-2.474Zm10.767 0V18.141h6.025c1.13 0 2.123.214 2.978.642a4.724 4.724 0 0 1 1.993 1.832c.489.794.733 1.726.733 2.795 0 1.207-.305 2.23-.916 3.07-.611.84-1.436 1.443-2.474 1.81l3.963 6.918h-2.612l-4.169-7.4 1.489.871h-4.765v6.53h-2.245Zm2.245-8.592h3.849c.672 0 1.26-.13 1.764-.39.504-.259.893-.633 1.168-1.122.29-.488.435-1.053.435-1.695 0-.657-.145-1.222-.435-1.695a2.762 2.762 0 0 0-1.168-1.123c-.504-.26-1.092-.39-1.764-.39h-3.849v6.415Zm14.829 11.34 7.697-18.877h2.405l-7.697 18.877h-2.405Zm14.476-2.749 6.117-17.067h2.657l6.117 17.067h-2.405l-1.398-4.009h-7.285l-1.397 4.01h-2.406Zm4.513-6.07h5.865l-3.253-9.37h.641l-3.253 9.37Zm12.529 6.07V18.142h6.025c1.13 0 2.123.214 2.978.642a4.73 4.73 0 0 1 1.993 1.832c.489.794.733 1.726.733 2.795 0 1.207-.305 2.23-.916 3.07-.611.84-1.436 1.443-2.475 1.81l3.964 6.918h-2.612l-4.169-7.4 1.489.871h-4.765v6.53h-2.245Zm2.245-8.59h3.848c.672 0 1.26-.13 1.764-.39s.894-.634 1.169-1.123c.29-.488.435-1.053.435-1.695 0-.657-.145-1.222-.435-1.695a2.764 2.764 0 0 0-1.169-1.123c-.504-.26-1.092-.39-1.764-.39h-3.848v6.415Zm-66.117 37.59V47.142h5.59c1.725 0 3.23.351 4.513 1.054a7.36 7.36 0 0 1 2.978 2.978c.702 1.268 1.054 2.764 1.054 4.49 0 1.71-.352 3.207-1.054 4.49a7.51 7.51 0 0 1-2.978 3.001c-1.283.703-2.788 1.054-4.513 1.054h-5.59Zm2.245-2.062h3.368c1.267 0 2.359-.267 3.276-.801a5.452 5.452 0 0 0 2.153-2.245c.504-.978.756-2.123.756-3.437 0-1.328-.26-2.474-.779-3.436a5.305 5.305 0 0 0-2.153-2.222c-.917-.535-2.001-.802-3.253-.802h-3.368v12.943Zm14.735 2.062V47.142h11.111v2.062h-8.866v5.406h8.408v2.062h-8.408v5.475h8.866v2.062h-11.111Zm18.406 0-6.162-17.067h2.405l5.223 15.005h-.481l5.223-15.005h2.406l-6.14 17.067h-2.474Zm10.767 0V47.142h11.111v2.062h-8.866v5.406h8.408v2.062h-8.408v5.475h8.866v2.062h-11.111Zm13.893 0V47.142h2.245v15.005h7.491v2.062h-9.736Zm19.968.275a8.93 8.93 0 0 1-3.391-.641 8.6 8.6 0 0 1-2.772-1.856 8.72 8.72 0 0 1-1.832-2.795c-.443-1.084-.665-2.26-.665-3.528 0-1.283.222-2.459.665-3.528a8.72 8.72 0 0 1 1.832-2.795 8.352 8.352 0 0 1 2.75-1.832c1.053-.428 2.191-.642 3.413-.642s2.352.222 3.39.665a8.044 8.044 0 0 1 2.75 1.832 8.268 8.268 0 0 1 1.855 2.772c.458 1.07.687 2.245.687 3.528 0 1.268-.229 2.444-.687 3.528a8.522 8.522 0 0 1-1.855 2.795 8.327 8.327 0 0 1-2.75 1.856c-1.038.427-2.168.641-3.39.641Zm0-2.085c.947 0 1.81-.168 2.589-.504a6.167 6.167 0 0 0 2.016-1.443 6.523 6.523 0 0 0 1.328-2.153 7.198 7.198 0 0 0 .481-2.635c0-.931-.16-1.802-.481-2.611a6.272 6.272 0 0 0-1.328-2.131 5.752 5.752 0 0 0-2.016-1.443c-.779-.352-1.642-.527-2.589-.527-.932 0-1.787.175-2.566.527a5.99 5.99 0 0 0-2.039 1.443 6.772 6.772 0 0 0-1.328 2.13 7.02 7.02 0 0 0-.482 2.612c0 .932.161 1.81.482 2.635.32.81.763 1.527 1.328 2.153a6.437 6.437 0 0 0 2.039 1.443c.779.336 1.634.504 2.566.504Zm11.957 1.81V47.142h6.025c1.13 0 2.123.214 2.978.641a4.724 4.724 0 0 1 1.993 1.833c.489.794.733 1.726.733 2.795 0 1.07-.244 2-.733 2.795-.473.779-1.138 1.39-1.993 1.833-.84.427-1.833.641-2.978.641h-3.78v6.53h-2.245Zm2.245-8.59h3.849c.687 0 1.282-.13 1.786-.39s.894-.634 1.169-1.123c.275-.488.412-1.053.412-1.695 0-.657-.137-1.222-.412-1.695a2.764 2.764 0 0 0-1.169-1.123c-.504-.26-1.099-.39-1.786-.39h-3.849v6.415Zm12.52 8.59V47.142h2.062l6.392 9.095h-1.054l6.346-9.095h2.061V64.21h-2.268V49.983l.802.252-6.346 8.934h-.183l-6.277-8.934.71-.252v14.226h-2.245Zm19.598 0V47.142h11.111v2.062h-8.866v5.406h8.408v2.062h-8.408v5.475h8.866v2.062h-11.111Zm13.893 0V47.142h1.878l9.805 13.791-.847.092V47.142h2.268V64.21h-1.879l-9.759-13.883.779-.091v13.974h-2.245Zm19.891 0V49.204h-4.627v-2.062h11.454v2.062h-4.559v15.005h-2.268Z" fill="#fff"/></svg>
